X:5053
T:Gerry Crossey's Hornpipe
M:4/4
R:Hornpipe
L:1/8
C:Aidan Crossey
K:G
Bc|dBGB DBGB|dBGB D2AB|cAFA DAFA|cAFA D2 Bc|
dBGB DBGB|dBGB D2AB|cAFA GFEF|G2 GG G2:||
Bc|d2ef g2fe|dece B2Bc|d2ef g2fg|agfe d2Bc|
d2ef g2fe|dece B2AG|cAFA DAFA|G2 GG G2:||
